X:462
T: Hebian yangliu paiduipai
N: C1497
O: China,Yunnan, Songming
S: II, 86]
R: Shange]
M: 4/4
L: 1/16
K: Bb
g2g2g2dfg2dfgfc2 | g16 | dfdcG12 | dfdcg12 |
c3dg2gfdfdcBcBc | d2BcG12 |
g2g2g2dfgfdcgfc2 | g16 | dfdcG12 |
c3dg2gfdfdcBcBc | d2BcG12

@@@ Tune index: 6463
